src/images/global/icons/service/account.svg

<?xml version="1.0" encoding="UTF-8"?>
<svg width="48px" height="48px" viewBox="0 0 48 48" version="1.1" xmlns="http://www.w3.org/2000/svg" xmlns:xlink="http://www.w3.org/1999/xlink">
    <!-- Generator: Sketch 46.2 (44496) - http://www.bohemiancoding.com/sketch -->
    <title>icon/Service/account</title>
    <desc>Created with Sketch.</desc>
    <defs>
        <path d="M15.9996154,0 C7.1774033,0 0,7.1774033 0,15.9996154 C0,24.822289 7.1774033,32 15.9996154,32 C24.8221351,32 32,24.822289 32,15.9996154 C31.9998462,7.1774033 24.8221351,0 15.9996154,0 L15.9996154,0 Z M15.9996154,1.84619823 C23.8042645,1.84619823 30.1538018,8.19542777 30.1538018,15.9996154 C30.1538018,19.2101541 29.078699,22.1739176 27.2703478,24.5513594 C25.4644583,21.112046 21.2980504,18.5987548 19.7335513,17.8605832 L19.4178514,17.7102719 C19.3590807,17.6816558 19.3218491,17.6544244 19.3020025,17.6367317 C19.3155412,17.5921152 19.3604654,17.4854972 19.5072382,17.318724 L19.6563187,17.15072 C20.6418808,16.0445395 22.2916128,14.1928027 22.355922,10.9584173 C22.4234621,7.56572033 19.96648,3.81086084 16.2010048,3.62824106 L16.1970047,3.62808721 L15.9297675,3.62885646 L15.9226904,3.62901031 C12.1762927,3.81132239 9.73223395,7.56602803 9.79992788,10.9584173 C9.86408327,14.1883411 11.5127383,16.0416164 12.4992235,17.1504123 L12.6490733,17.3194933 C12.7967692,17.4864203 12.8418472,17.5927306 12.8553859,17.6371932 C12.8355393,17.6547321 12.7981538,17.6819635 12.7384601,17.7105796 L12.4970696,17.8262747 C10.8976466,18.5889084 6.61215895,21.1226616 4.74149859,24.5670521 C2.92607034,22.1869949 1.84619823,19.2172312 1.84619823,15.9996154 C1.84619823,8.19527392 8.19527392,1.84619823 15.9996154,1.84619823 L15.9996154,1.84619823 Z" id="path-1"></path>
    </defs>
    <g id="Symbols" stroke="none" stroke-width="1" fill="none" fill-rule="evenodd">
        <g id="icon/Service/account">
            <g id="Icon" transform="translate(8.000000, 8.000000)">
                <mask id="mask-2" fill="white">
                    <use xlink:href="#path-1"></use>
                </mask>
                <use id="Mask" fill="#384048" xlink:href="#path-1"></use>
                <g id="Color/Grayscale/Night-Sky" mask="url(#mask-2)" fill="#111111">
                    <g transform="translate(-8.000000, -8.000000)" id="Swatch">
                        <rect x="0" y="0" width="48" height="48"></rect>
                    </g>
                </g>
            </g>
        </g>
    </g>
</svg>

<?xml version="1.0" encoding="utf-8"?>
<!-- Generator: Adobe Illustrator 21.0.2, SVG Export Plug-In . SVG Version: 6.00 Build 0)  -->
<svg version="1.1" id="icon_x2F_Service_x2F_account-Layer_1" xmlns="http://www.w3.org/2000/svg" xmlns:xlink="http://www.w3.org/1999/xlink" x="0px" y="0px"
	 viewBox="0 0 48 48" style="enable-background:new 0 0 48 48;" xml:space="preserve">
<title>icon/Service/account</title>
<desc>Created with Sketch.</desc>
<g id="icon_x2F_Service_x2F_account-Symbols">
	<g id="icon_x2F_Service_x2F_account">
		<g id="icon_x2F_Service_x2F_account-Icon" transform="translate(8.000000, 8.000000)">
			<g id="icon_x2F_Service_x2F_account-Mask">
				<path id="icon_x2F_Service_x2F_account-path-1_1_" style="fill:#384048;" d="M16,0C7.2,0,0,7.2,0,16c0,8.8,7.2,16,16,16c8.8,0,16-7.2,16-16
					C32,7.2,24.8,0,16,0L16,0z M16,1.8c7.8,0,14.2,6.3,14.2,14.2c0,3.2-1.1,6.2-2.9,8.6c-1.8-3.4-6-6-7.5-6.7l-0.3-0.2
					c-0.1,0-0.1-0.1-0.1-0.1c0,0,0.1-0.2,0.2-0.3l0.1-0.2c1-1.1,2.6-3,2.7-6.2c0.1-3.4-2.4-7.1-6.2-7.3l0,0l-0.3,0l0,0
					C12.2,3.8,9.7,7.6,9.8,11c0.1,3.2,1.7,5.1,2.7,6.2l0.1,0.2c0.1,0.2,0.2,0.3,0.2,0.3c0,0-0.1,0-0.1,0.1l-0.2,0.1
					c-1.6,0.8-5.9,3.3-7.8,6.7c-1.8-2.4-2.9-5.3-2.9-8.6C1.8,8.2,8.2,1.8,16,1.8L16,1.8z"/>
			</g>
			<defs>
				<filter id="icon_x2F_Service_x2F_account-Adobe_OpacityMaskFilter" filterUnits="userSpaceOnUse" x="-8" y="-8" width="48" height="48">
					<feColorMatrix  type="matrix" values="1 0 0 0 0  0 1 0 0 0  0 0 1 0 0  0 0 0 1 0"/>
				</filter>
			</defs>
			<mask maskUnits="userSpaceOnUse" x="-8" y="-8" width="48" height="48" id="icon_x2F_Service_x2F_account-mask-2">
				<g style="filter:url(#icon_x2F_Service_x2F_account-Adobe_OpacityMaskFilter);">
					<path id="icon_x2F_Service_x2F_account-path-1" style="fill:#FFFFFF;" d="M16,0C7.2,0,0,7.2,0,16c0,8.8,7.2,16,16,16c8.8,0,16-7.2,16-16C32,7.2,24.8,0,16,0
						L16,0z M16,1.8c7.8,0,14.2,6.3,14.2,14.2c0,3.2-1.1,6.2-2.9,8.6c-1.8-3.4-6-6-7.5-6.7l-0.3-0.2c-0.1,0-0.1-0.1-0.1-0.1
						c0,0,0.1-0.2,0.2-0.3l0.1-0.2c1-1.1,2.6-3,2.7-6.2c0.1-3.4-2.4-7.1-6.2-7.3l0,0l-0.3,0l0,0C12.2,3.8,9.7,7.6,9.8,11
						c0.1,3.2,1.7,5.1,2.7,6.2l0.1,0.2c0.1,0.2,0.2,0.3,0.2,0.3c0,0-0.1,0-0.1,0.1l-0.2,0.1c-1.6,0.8-5.9,3.3-7.8,6.7
						c-1.8-2.4-2.9-5.3-2.9-8.6C1.8,8.2,8.2,1.8,16,1.8L16,1.8z"/>
				</g>
			</mask>
			<g id="icon_x2F_Service_x2F_account-Color_x2F_Grayscale_x2F_Night-Sky" style="mask:url(#icon_x2F_Service_x2F_account-mask-2);">
				<g id="icon_x2F_Service_x2F_account-Swatch" transform="translate(-8.000000, -8.000000)">
					<rect style="fill:#111111;" width="48" height="48"/>
				</g>
			</g>
		</g>
	</g>
</g>
</svg>
